X: 11511
T: Eddie Kelly's
R: jig
M: 6/8
K: Eminor
|:GEF G2A|Bee edc|~B3 GBG|AFD AFD|
GEF G2A|Bee edc|~B3 GBG|1 AFD E2F:|2 AFD E2f||
|:gfe fed|Bee Bee|gfe fed|Bcd ~e3|
gfe fed|Bee Bee|gfe fed|Bcd ~e3:|

